X: 1
T: James And The Giant Peach
M: 6/8
L: 1/8
R: jig
K: Amin
|: AcG EcA | BGG dBG | AcG EcA | BGG Bcd |
efe edc | BGG dBG | Ecc BAG | EFG A3 :|
|: age aba | ge^f ged | cAg age | dcA ~G3 |
ABA ~B3 | cBc efg | age dBG |1 ABA A3 :|
2 ABA A2 ||
